svg/flag_checkered.svg

<svg xmlns="http://www.w3.org/2000/svg" viewBox="0 0 24 24"><path d="M14.4 6H20v10h-7l-.4-2H7v7H5V4h9zm-.4 8h2v-2h2v-2h-2V8h-2v2l-1-2V6h-2v2H9V6H7v2h2v2H7v2h2v-2h2v2h2v-2l1 2zm-3-4V8h2v2zm3 0h2v2h-2z"/></svg>

<?xml version="1.0" encoding="UTF-8"?><!DOCTYPE svg PUBLIC "-//W3C//DTD SVG 1.1//EN" "http://www.w3.org/Graphics/SVG/1.1/DTD/svg11.dtd"><svg xmlns="http://www.w3.org/2000/svg" xmlns:xlink="http://www.w3.org/1999/xlink" version="1.1" id="mdi-flag-checkered" width="24" height="24" viewBox="0 0 24 24"><path d="M14.4,6H20V16H13L12.6,14H7V21H5V4H14L14.4,6M14,14H16V12H18V10H16V8H14V10L13,8V6H11V8H9V6H7V8H9V10H7V12H9V10H11V12H13V10L14,12V14M11,10V8H13V10H11M14,10H16V12H14V10Z" /></svg>
